X:11
T:Polska fr{\aa}n Gotland
R:sl-polska
A:Gotland
Z:id:hn-sp-11
M:3/4
L:1/16
K:Dm
D2FA A2d2 d2e2|f2ed e2c2 c3d|c2de fgag f2ed|d^cdf ed=cB AGFE|
D2FA A2d2 d2e2|f2ed e2c2 c3d|c2de fgag f2ed|fed^c c2d2 d4:|
|:f2fa fcfa bagf|e2eg eceg agfe|d3f dAdf gfed|d^cec A3B AGFE|
D2FA A2d2 d2e2|f2ed e2c2 c3d|c2de fgag f2ed|fed^c c2d2 d4:|

